src/assets/icons/weeks,simple,37.svg

<svg width="48" height="48" viewBox="0 0 48 48" fill="none" xmlns="http://www.w3.org/2000/svg">
<rect opacity="0.2" x="5" y="5" width="38" height="38" rx="4" fill="black"/>
<path d="M5 13C5 9.22876 5 7.34315 6.17157 6.17157C7.34315 5 9.22876 5 13 5H35C38.7712 5 40.6569 5 41.8284 6.17157C43 7.34315 43 9.22876 43 13V15H5V13Z" fill="black"/>
<path d="M16.8196 38.2386C20.7401 38.2386 23.544 36.0824 23.5355 33.0994C23.544 30.9261 22.1634 29.375 19.598 29.0511V28.9148C21.5497 28.5653 22.8963 27.1847 22.8878 25.2244C22.8963 22.4716 20.4844 20.3068 16.8707 20.3068C13.2912 20.3068 10.598 22.4034 10.5469 25.4205H14.0838C14.1264 24.0909 15.3452 23.2301 16.8537 23.2301C18.3452 23.2301 19.3423 24.1335 19.3338 25.446C19.3423 26.8182 18.1747 27.7472 16.4957 27.7472H14.8679V30.4574H16.4957C18.473 30.4574 19.7088 31.446 19.7003 32.8523C19.7088 34.2415 18.5156 35.196 16.8281 35.196C15.2003 35.196 13.9815 34.3438 13.9134 33.0653H10.1974C10.2571 36.1165 12.9844 38.2386 16.8196 38.2386ZM26.8786 38H30.6882L37.9325 23.6051V20.5455H25.6854V23.5625H34.1143V23.6818L26.8786 38Z" fill="black"/>
</svg>

<svg xmlns="http://www.w3.org/2000/svg" width="48" height="48" fill="none" viewBox="0 0 48 48">
  <rect width="38" height="38" x="5" y="5" fill="#000" opacity=".2" rx="4"/>
  <path fill="#000" d="M5 13c0-3.771 0-5.657 1.172-6.828C7.343 5 9.229 5 13 5h22c3.771 0 5.657 0 6.828 1.172C43 7.343 43 9.229 43 13v2H5v-2zM16.82 38.239c3.92 0 6.724-2.157 6.715-5.14.009-2.173-1.372-3.724-3.937-4.048v-.136c1.952-.35 3.298-1.73 3.29-3.69.008-2.753-2.404-4.918-6.017-4.918-3.58 0-6.273 2.096-6.324 5.114h3.537c.042-1.33 1.261-2.19 2.77-2.19 1.491 0 2.488.902 2.48 2.215.008 1.372-1.16 2.301-2.838 2.301h-1.628v2.71h1.628c1.977 0 3.213.989 3.204 2.395.009 1.39-1.184 2.344-2.872 2.344-1.628 0-2.846-.852-2.915-2.13h-3.716c.06 3.05 2.787 5.173 6.623 5.173zM26.879 38h3.81l7.243-14.395v-3.06H25.685v3.017h8.43v.12L26.878 38z"/>
</svg>
